X:674
T:Reel 674
M:4/4
K:Dmaj
L:1/8
F>D (3DCD A,>D (3DCD |E>D (3DCD A,>D (3DCB, |A,>D (3DCD A>D (3DCD |EA,CA, B,CD2:|A>d (3dcd A>d (3dcd |A>D (3dcd e>d (3dcd |A>=c (3ccc e2 (3ccc |A>E (3EEE e2cB|A>d (3dcd e>d (3dcd |A>d (3dcd edcd|edcd edBd|AGEC D2|
